www/assets/images/test_icons/flags/KZ.svg

<svg fill="none" height="15" viewBox="0 0 21 15" width="21" xmlns="http://www.w3.org/2000/svg" xmlns:xlink="http://www.w3.org/1999/xlink"><mask id="a" height="15" maskUnits="userSpaceOnUse" width="21" x="0" y="0"><path d="m19 0h-17c-1.10457 0-2 .89543-2 2v11c0 1.1046.89543 2 2 2h17c1.1046 0 2-.8954 2-2v-11c0-1.10457-.8954-2-2-2z" fill="#fff"/></mask><g mask="url(#a)"><path d="m19 0h-17c-1.10457 0-2 .89543-2 2v11c0 1.1046.89543 2 2 2h17c1.1046 0 2-.8954 2-2v-11c0-1.10457-.8954-2-2-2z" fill="#00afcc"/><path clip-rule="evenodd" d="m2 2.495c0-.273.232-.495.5-.495.276 0 .5.216.5.495v2.01c0 .273-.232.495-.5.495-.276 0-.5-.216-.5-.495zm1 2c0-.273.232-.495.5-.495.276 0 .5.216.5.495v2.01c0 .273-.232.495-.5.495-.276 0-.5-.216-.5-.495zm0 4c0-.273.232-.495.5-.495.276 0 .5.216.5.495v2.01c0 .273-.232.495-.5.495-.276 0-.5-.216-.5-.495zm-1 2c0-.273.232-.495.5-.495.276 0 .5.216.5.495v2.01c0 .273-.232.495-.5.495-.276 0-.5-.216-.5-.495zm0-3.995c0-.276.232-.5.5-.5.276 0 .5.232.5.5 0 .276-.232.5-.5.5-.276 0-.5-.232-.5-.5zm1-4c0-.276.232-.5.5-.5.276 0 .5.232.5.5 0 .276-.232.5-.5.5-.276 0-.5-.232-.5-.5zm-1 5c0-.276.232-.5.5-.5.276 0 .5.232.5.5 0 .276-.232.5-.5.5-.276 0-.5-.232-.5-.5zm1 5c0-.276.232-.5.5-.5.276 0 .5.232.5.5 0 .276-.232.5-.5.5-.276 0-.5-.232-.5-.5zm-1-4c0-.276.232-.5.5-.5.276 0 .5.232.5.5 0 .276-.232.5-.5.5-.276 0-.5-.232-.5-.5z" fill="#dac21d" fill-rule="evenodd"/><path d="m11.5 9c1.3807 0 2.5-1.11929 2.5-2.5s-1.1193-2.5-2.5-2.5-2.5 1.11929-2.5 2.5 1.1193 2.5 2.5 2.5z" fill="#ffc600"/><path clip-rule="evenodd" d="m8 7 1 2 2.5 1 2.5-1 1-2v3l-3.5 1-3.5-1z" fill="#ffc600" fill-rule="evenodd"/><path d="m19 .5h-17c-.82843 0-1.5.67157-1.5 1.5v11c0 .8284.67157 1.5 1.5 1.5h17c.8284 0 1.5-.6716 1.5-1.5v-11c0-.82843-.6716-1.5-1.5-1.5z" stroke="#000" stroke-opacity=".1"/></g></svg>

<svg width="21" height="15" viewBox="0 0 21 15" fill="none" xmlns="http://www.w3.org/2000/svg">
<mask id="mask0_3_115" style="mask-type:alpha" maskUnits="userSpaceOnUse" x="0" y="0" width="21" height="15">
<path d="M19 0H2C0.89543 0 0 0.89543 0 2V13C0 14.1046 0.89543 15 2 15H19C20.1046 15 21 14.1046 21 13V2C21 0.89543 20.1046 0 19 0Z" fill="white"/>
</mask>
<g mask="url(#mask0_3_115)">
<path d="M19 0H2C0.89543 0 0 0.89543 0 2V13C0 14.1046 0.89543 15 2 15H19C20.1046 15 21 14.1046 21 13V2C21 0.89543 20.1046 0 19 0Z" fill="#00AFCC"/>
<path fill-rule="evenodd" clip-rule="evenodd" d="M2 2.495C2 2.222 2.232 2 2.5 2C2.776 2 3 2.216 3 2.495V4.505C3 4.778 2.768 5 2.5 5C2.224 5 2 4.784 2 4.505V2.495ZM3 4.495C3 4.222 3.232 4 3.5 4C3.776 4 4 4.216 4 4.495V6.505C4 6.778 3.768 7 3.5 7C3.224 7 3 6.784 3 6.505V4.495ZM3 8.495C3 8.222 3.232 8 3.5 8C3.776 8 4 8.216 4 8.495V10.505C4 10.778 3.768 11 3.5 11C3.224 11 3 10.784 3 10.505V8.495ZM2 10.495C2 10.222 2.232 10 2.5 10C2.776 10 3 10.216 3 10.495V12.505C3 12.778 2.768 13 2.5 13C2.224 13 2 12.784 2 12.505V10.495ZM2 6.5C2 6.224 2.232 6 2.5 6C2.776 6 3 6.232 3 6.5C3 6.776 2.768 7 2.5 7C2.224 7 2 6.768 2 6.5ZM3 2.5C3 2.224 3.232 2 3.5 2C3.776 2 4 2.232 4 2.5C4 2.776 3.768 3 3.5 3C3.224 3 3 2.768 3 2.5ZM2 7.5C2 7.224 2.232 7 2.5 7C2.776 7 3 7.232 3 7.5C3 7.776 2.768 8 2.5 8C2.224 8 2 7.768 2 7.5ZM3 12.5C3 12.224 3.232 12 3.5 12C3.776 12 4 12.232 4 12.5C4 12.776 3.768 13 3.5 13C3.224 13 3 12.768 3 12.5ZM2 8.5C2 8.224 2.232 8 2.5 8C2.776 8 3 8.232 3 8.5C3 8.776 2.768 9 2.5 9C2.224 9 2 8.768 2 8.5Z" fill="#DAC21D"/>
<path d="M11.5 9C12.8807 9 14 7.88071 14 6.5C14 5.11929 12.8807 4 11.5 4C10.1193 4 9 5.11929 9 6.5C9 7.88071 10.1193 9 11.5 9Z" fill="#FFC600"/>
<path fill-rule="evenodd" clip-rule="evenodd" d="M8 7L9 9L11.5 10L14 9L15 7V10L11.5 11L8 10V7Z" fill="#FFC600"/>
<path d="M19 0.5H2C1.17157 0.5 0.5 1.17157 0.5 2V13C0.5 13.8284 1.17157 14.5 2 14.5H19C19.8284 14.5 20.5 13.8284 20.5 13V2C20.5 1.17157 19.8284 0.5 19 0.5Z" stroke="black" stroke-opacity="0.1"/>
</g>
</svg>
